X: 116
M:9/8
L:1/8
K:A
vAce (f/g/a).f ecA|Ace (f/g/a).f e2c|Ace (f/g/a).f ecA|BAF ABc d2B|\
vcBA BAF AFE|cBA ABc d2B|cBA BAF AFE|(A/B/c).A BAG A3 |\
cBA BAF AFE|cBA ABc d2B|cBA BAF AFE|(A/B/c).A BAG A3 |]


